icons/ppe_suit.svg

<svg width="48" height="48" viewBox="0 0 48 48" fill="none" xmlns="http://www.w3.org/2000/svg">
<path fill-rule="evenodd" clip-rule="evenodd" d="M25 13C26.6569 13 28 11.6569 28 10V7H20V10C20 11.6569 21.3431 13 23 13H25ZM23 11C22.4477 11 22 10.5523 22 10V9H26V10C26 10.5523 25.5523 11 25 11H23Z" fill="black"/>
<path fill-rule="evenodd" clip-rule="evenodd" d="M17 9C17 6.23858 19.2386 4 22 4H26C28.7614 4 31 6.23858 31 9V14.1C33.2822 14.5633 35 16.581 35 19V31C35 32.6569 33.6569 34 32 34C31.6494 34 31.3128 33.9398 31 33.8293V40C31 42.2091 29.2091 44 27 44C25.8053 44 24.7329 43.4762 24 42.6458C23.2671 43.4762 22.1947 44 21 44C18.7909 44 17 42.2091 17 40V33.8293C16.6872 33.9398 16.3506 34 16 34C14.3431 34 13 32.6569 13 31V19C13 16.581 14.7178 14.5633 17 14.1V9ZM30 16C31.6569 16 33 17.3431 33 19V28H31V19H29V24H25V16H30ZM32 32C31.4477 32 31 31.5523 31 31V30H33V31C33 31.5523 32.5523 32 32 32ZM27 42C25.8954 42 25 41.1046 25 40V30H29V40C29 41.1046 28.1046 42 27 42ZM18 16C16.3431 16 15 17.3431 15 19V28H17V19H19V24H23V16H18ZM21 42C22.1046 42 23 41.1046 23 40V30H19V40C19 41.1046 19.8954 42 21 42ZM16 32C16.5523 32 17 31.5523 17 31V30H15V31C15 31.5523 15.4477 32 16 32ZM26 6C27.6569 6 29 7.34315 29 9V14H19V9C19 7.34315 20.3431 6 22 6H26ZM29 26V28H25V26H29ZM19 26V28H23V26H19Z" fill="black"/>
</svg>

<svg
  xmlns="http://www.w3.org/2000/svg"
  width="24"
  height="24"
  viewBox="0 0 24 24"
  fill="none"
  stroke="currentColor"
  stroke-width="2"
  stroke-linecap="round"
  stroke-linejoin="round"
>
  <path
    fill-rule="evenodd"
    d="M25 13a3 3 0 0 0 3-3V7h-8v3a3 3 0 0 0 3 3zm-2-2a1 1 0 0 1-1-1V9h4v1a1 1 0 0 1-1 1z"
    clip-rule="evenodd"
  />
  <path
    fill-rule="evenodd"
    d="M17 9a5 5 0 0 1 5-5h4a5 5 0 0 1 5 5v5.1c2.282.463 4 2.481 4 4.9v12a3 3 0 0 1-4 2.83V40a4 4 0 0 1-7 2.646A4 4 0 0 1 17 40v-6.17A3 3 0 0 1 13 31V19a5 5 0 0 1 4-4.9zm13 7a3 3 0 0 1 3 3v9h-2v-9h-2v5h-4v-8zm2 16a1 1 0 0 1-1-1v-1h2v1a1 1 0 0 1-1 1m-5 10a2 2 0 0 1-2-2V30h4v10a2 2 0 0 1-2 2m-9-26a3 3 0 0 0-3 3v9h2v-9h2v5h4v-8zm3 26a2 2 0 0 0 2-2V30h-4v10a2 2 0 0 0 2 2m-5-10a1 1 0 0 0 1-1v-1h-2v1a1 1 0 0 0 1 1M26 6a3 3 0 0 1 3 3v5H19V9a3 3 0 0 1 3-3zm3 20v2h-4v-2zm-10 0v2h4v-2z"
    clip-rule="evenodd"
  />
</svg>
